;FLAVOR:Marlin
;TIME:403
;Filament used: 0.318103m
;Layer height: 0.2
;MINX:22.02
;MINY:30.232
;MINZ:0.2
;MAXX:210.06
;MAXY:202.956
;MAXZ:0.6
;TARGET_MACHINE.NAME:SV06
;Generated with Cura_SteamEngine 5.9.0
M82 ;absolute extrusion mode
START_PRINT BED_TEMP=60 EXTRUDER_TEMP=195.0
G92 E0
G92 E0
G1 F1800 E-0.5
;LAYER_COUNT:1
;LAYER:0
M107
G1 F600 Z0.6
;MESH:First_Layer_Test_3x3 220x220.stl
G0 F4000 X40.472 Y48.68 Z0.6
;TYPE:WALL-INNER
G1 F600 Z0.2
G1 F1800 E0
G1 F1200 X40.472 Y40.159 E0.42511
G1 X40.619 Y39.661 E0.45102
G1 X40.58 Y39.434 E0.46251
G1 X40.58 Y30.832 E0.89167
G1 X22.62 Y30.832 E1.78769
G1 X22.62 Y48.792 E2.68372
G1 X31.285 Y48.792 E3.11602
G1 X31.456 Y48.832 E3.12478
G1 X31.739 Y48.714 E3.14008
G1 X31.947 Y48.68 E3.15059
G1 X40.472 Y48.68 E3.57591
G1 F1800 E3.07591
G1 F600 Z0.6
G0 F4000 X116.023 Y48.766 Z0.6
G1 F600 Z0.2
G1 F1800 E3.57591
G1 F1200 X116.372 Y48.68 E3.59384
G1 X124.888 Y48.68 E4.01871
G1 X124.889 Y40.155 E4.44402
G1 X124.931 Y39.922 E4.45583
G1 X125.038 Y39.656 E4.47014
G1 X125 Y39.432 E4.48147
G1 X125 Y30.832 E4.91053
G1 X107.04 Y30.832 E5.80655
G1 X107.034 Y39.509 E6.23945
G1 X107 Y39.662 E6.24727
G1 X107.118 Y39.952 E6.26289
G1 X107.152 Y40.164 E6.2736
G1 X107.152 Y48.68 E6.69847
G1 X115.721 Y48.684 E7.12598
G1 X116.023 Y48.766 E7.14159
G1 F1800 E6.64159
G1 F600 Z0.6
G0 F4000 X191.568 Y48.68 Z0.6
G1 F600 Z0.2
G1 F1800 E7.14159
G1 F1200 X200.092 Y48.68 E7.56685
G1 X200.33 Y48.723 E7.57892
G1 X200.596 Y48.83 E7.59322
G1 X200.82 Y48.792 E7.60456
G1 X209.42 Y48.792 E8.03361
G1 X209.419 Y30.832 E8.92964
G1 X191.46 Y30.832 E9.82562
G1 X191.46 Y39.486 E10.25737
G1 X191.419 Y39.667 E10.26663
G1 X191.536 Y39.961 E10.28242
G1 X191.568 Y40.159 E10.29242
G1 X191.568 Y48.68 E10.71754
G1 F1800 E10.21754
G1 F600 Z0.6
G0 F4000 X191.568 Y125.428 Z0.6
G1 F600 Z0.2
G1 F1800 E10.71754
G1 F1200 X200.097 Y125.429 E11.14305
G1 X200.591 Y125.575 E11.16875
G1 X200.818 Y125.536 E11.18024
G1 X209.42 Y125.536 E11.6094
G1 X209.42 Y107.576 E12.50542
G1 X200.743 Y107.57 E12.93832
G1 X200.59 Y107.536 E12.94614
G1 X200.3 Y107.654 E12.96176
G1 X200.088 Y107.688 E12.97247
G1 X191.568 Y107.688 E13.39754
G1 X191.564 Y116.257 E13.82505
G1 X191.483 Y116.558 E13.8406
G1 X191.568 Y116.908 E13.85857
G1 X191.568 Y125.428 E14.28363
G1 F1800 E13.78363
G1 F600 Z0.6
G0 F4000 X191.5 Y202.356 Z0.6
G1 F600 Z0.2
G1 F1800 E14.28363
G1 F1200 X209.46 Y202.356 E15.17966
G1 X209.46 Y184.396 E16.07569
G1 X200.766 Y184.396 E16.50943
G1 X200.585 Y184.355 E16.51869
G1 X200.291 Y184.472 E16.53448
G1 X200.075 Y184.504 E16.54537
G1 X191.608 Y184.504 E16.96779
G1 X191.607 Y192.959 E17.38962
G1 X191.461 Y193.451 E17.41522
G1 X191.5 Y193.678 E17.42671
G1 X191.5 Y202.356 E17.85966
G1 F1800 E17.35966
G1 F600 Z0.6
G0 F4000 X110 Y202.28 Z0.6
G1 F600 Z0.2
G1 F1800 E17.85966
G1 F1200 X125 Y202.28 E18.60801
G1 X125 Y193.623 E19.03991
G1 X125.04 Y193.448 E19.04887
G1 X124.922 Y193.16 E19.06439
G1 X124.888 Y192.948 E19.07511
G1 X124.888 Y184.432 E19.49997
G1 X116.319 Y184.428 E19.92748
G1 X116.019 Y184.347 E19.94298
G1 X115.668 Y184.432 E19.961
G1 X107.152 Y184.432 E20.38586
G1 X107.151 Y192.957 E20.81118
G1 X107.118 Y193.16 E20.82144
G1 X107.002 Y193.456 E20.8373
G1 X107.04 Y193.68 E20.84864
G1 X107.04 Y202.28 E21.27769
G1 X110 Y202.28 E21.42537
G1 F1800 E20.92537
G1 F600 Z0.6
G0 F4000 X40.58 Y202.28 Z0.6
G1 F600 Z0.2
G1 F1800 E21.42537
G1 F1200 X40.586 Y193.603 E21.85826
G1 X40.621 Y193.448 E21.86619
G1 X40.514 Y193.187 E21.88026
G1 X40.472 Y192.953 E21.89213
G1 X40.472 Y184.432 E22.31724
G1 X31.951 Y184.432 E22.74235
G1 X31.446 Y184.283 E22.76862
G1 X31.268 Y184.318 E22.77767
G1 X22.62 Y184.32 E23.20912
G1 X22.621 Y202.28 E24.10515
G1 X40.58 Y202.28 E25.00113
G1 F1800 E24.50113
G1 F600 Z0.6
G0 F4000 X40.472 Y125.428 Z0.6
G1 F600 Z0.2
G1 F1800 E25.00113
G1 F1200 X40.476 Y116.855 E25.42884
G1 X40.557 Y116.555 E25.44434
G1 X40.472 Y116.204 E25.46236
G1 X40.472 Y107.688 E25.88722
G1 X31.946 Y107.687 E26.31259
G1 X31.446 Y107.539 E26.3386
G1 X31.268 Y107.574 E26.34765
G1 X22.62 Y107.576 E26.7791
G1 X22.62 Y125.536 E27.67513
G1 X31.232 Y125.536 E28.10479
G1 X31.456 Y125.577 E28.11615
G1 X31.71 Y125.471 E28.12988
G1 X31.952 Y125.428 E28.14214
G1 X40.472 Y125.428 E28.56721
G1 F1800 E28.06721
G1 F600 Z0.6
G0 F4000 X110 Y125.429 Z0.6
G1 F600 Z0.2
G1 F1800 E28.56721
G1 F1200 X115.721 Y125.432 E28.85263
G1 X116.022 Y125.513 E28.86818
G1 X116.372 Y125.428 E28.88615
G1 X124.888 Y125.428 E29.31101
G1 X124.892 Y116.855 E29.73872
G1 X124.973 Y116.554 E29.75427
G1 X124.888 Y116.205 E29.77219
G1 X124.888 Y107.688 E30.19711
G1 X116.319 Y107.684 E30.62462
G1 X116.019 Y107.603 E30.64012
G1 X115.668 Y107.688 E30.65814
G1 X107.152 Y107.688 E31.083
G1 X107.148 Y116.257 E31.51051
G1 X107.067 Y116.558 E31.52606
G1 X107.152 Y116.908 E31.54403
G1 X107.152 Y125.428 E31.9691
G1 X110 Y125.429 E32.11118
G0 F4000 X110 Y126.029
;TYPE:WALL-OUTER
G1 F1200 X115.679 Y126.031 E32.39451
G1 X115.958 Y126.144 E32.40953
G1 F1309.1 X116.018 Y126.314 E32.41777
G1 X116.083 Y126.146 E32.42601
G1 F1200 X116.358 Y126.028 E32.44094
G1 X125.488 Y126.028 E32.89644
G1 X125.491 Y116.897 E33.35199
G1 X125.611 Y116.61 E33.36751
G1 F1318.7 X125.785 Y116.56 E33.37572
G1 X125.613 Y116.502 E33.38397
G1 F1200 X125.488 Y116.218 E33.39945
G1 X125.488 Y107.088 E33.85494
G1 X116.361 Y107.085 E34.31029
G1 X116.084 Y106.973 E34.3252
G1 F1321.1 X116.024 Y106.79 E34.33393
G1 X115.961 Y106.971 E34.34261
G1 F1200 X115.681 Y107.088 E34.35775
G1 X106.552 Y107.088 E34.8132
G1 X106.549 Y116.215 E35.26855
G1 X106.436 Y116.494 E35.28356
G1 F1445.8 X106.124 Y116.559 E35.29676
G1 F1596.5 X106.299 Y116.564 E35.30333
G1 F1302 X106.434 Y116.618 E35.31001
G1 F1200 X106.552 Y116.894 E35.32499
G1 X106.552 Y126.028 E35.78068
G1 X110 Y126.029 E35.95271
G0 F4000 X110.02 Y126.029
G1 F1800 E35.45271
G1 F600 Z0.6
G0 F4000 X116.022 Y126.536 Z0.6
G1 F600 Z0.2
G1 F1800 E35.95271
G1 F2016.8 X116.022 Y183.339 E37.63888
G1 F1800 E37.13888
G1 F600 Z0.6
G0 F4000 X106.051 Y193.359 Z0.6
G1 F600 Z0.2
G1 F1800 E37.63888
G1 F1535.2 X41.604 Y193.358 E40.15216
G1 F1538.5 X41.58 Y193.359 E40.15309
G1 F1800 E39.65309
G1 F600 Z0.6
G0 F4000 X41.18 Y202.88 Z0.6
G1 F600 Z0.2
G1 F1800 E40.15309
G1 F1200 X41.182 Y193.675 E40.61233
G1 X41.231 Y193.521 E40.62039
G1 F1247.8 X41.346 Y193.405 E40.62823
G1 F1409 X41.58 Y193.359 E40.63836
G1 X41.335 Y193.327 E40.64886
G1 F1247.8 X41.194 Y193.246 E40.65666
G1 F1200 X41.072 Y192.969 E40.67176
G1 X41.072 Y183.832 E41.12761
G1 X31.944 Y183.829 E41.58301
G1 X31.648 Y183.704 E41.59904
G1 F1241.4 X31.586 Y183.585 E41.60551
G1 F1400.8 X31.545 Y183.331 E41.61651
G1 X31.49 Y183.569 E41.62695
G1 F1241.4 X31.394 Y183.662 E41.63339
G1 F1200 X31.218 Y183.72 E41.64264
G1 X22.02 Y183.72 E42.10153
G1 X22.021 Y202.88 E43.05742
G1 X41.18 Y202.88 E44.01327
G0 F4000 X41.18 Y202.86
G1 F1800 E43.51327
G1 F600 Z0.6
G0 F4000 X31.545 Y183.331 Z0.6
G1 F600 Z0.2
G1 F1800 E44.01327
G1 F1531.9 X31.545 Y126.536 E46.23286
G1 F1800 E45.73286
G1 F600 Z0.6
G0 F4000 X41.072 Y126.028 Z0.6
G1 F600 Z0.2
G1 F1800 E46.23286
G1 F1200 X41.075 Y116.897 E46.6884
G1 X41.187 Y116.619 E46.70336
G1 F1321.1 X41.368 Y116.56 E46.71198
G1 X41.189 Y116.496 E46.7206
G1 F1200 X41.072 Y116.217 E46.73569
G1 X41.072 Y107.088 E47.19114
G1 X31.944 Y107.085 E47.64654
G1 X31.648 Y106.96 E47.66257
G1 F1241.4 X31.586 Y106.841 E47.66904
G1 F1400.8 X31.545 Y106.587 E47.68003
G1 X31.49 Y106.825 E47.69047
G1 F1241.4 X31.394 Y106.918 E47.69692
G1 F1200 X31.218 Y106.976 E47.70617
G1 X22.02 Y106.976 E48.16506
G1 X22.02 Y126.136 E49.12095
G1 X31.231 Y126.138 E49.58049
G1 X31.383 Y126.187 E49.58846
G1 F1247.8 X31.499 Y126.302 E49.5963
G1 F1406.2 X31.545 Y126.536 E49.60645
G1 X31.577 Y126.291 E49.61697
G1 F1247.8 X31.658 Y126.15 E49.62477
G1 F1200 X31.941 Y126.031 E49.64009
G1 X41.072 Y126.028 E50.09563
G0 F4000 X41.072 Y126.008
G1 F1800 E49.59563
G1 F600 Z0.6
G0 F4000 X41.565 Y116.558 Z0.6
G1 F600 Z0.2
G1 F1800 E50.09563
G1 F2016.8 X106.04 Y116.558 E52.00955
G1 F2022.5 X106.057 Y116.558 E52.01006
G1 F1800 E51.51006
G1 F600 Z0.6
G0 F4000 X116.022 Y106.595 Z0.6
G1 F600 Z0.2
G1 F1800 E52.01006
G1 F2016.8 X116.022 Y49.792 E53.69623
G0 F4000 X116.019 Y49.568
G1 F1309.1 X116.133 Y49.373 E53.70656
G1 F1200 X116.359 Y49.28 E53.71876
G1 X125.488 Y49.28 E54.1742
G1 X125.491 Y40.152 E54.6296
G1 X125.624 Y39.852 E54.64597
G1 F1241.4 X125.737 Y39.796 E54.65206
G1 F1400.8 X126 Y39.757 E54.66342
G1 X125.753 Y39.702 E54.67423
G1 F1241.4 X125.665 Y39.612 E54.6803
G1 F1200 X125.605 Y39.46 E54.68846
G1 X125.6 Y30.232 E55.14884
G1 X106.44 Y30.232 E56.10474
G1 X106.438 Y39.437 E56.56398
G1 X106.389 Y39.592 E56.57209
G1 F1247.8 X106.275 Y39.706 E56.57983
G1 F1409 X106.04 Y39.758 E56.59005
G1 X106.287 Y39.788 E56.60062
G1 F1247.8 X106.428 Y39.867 E56.60838
G1 F1200 X106.549 Y40.152 E56.62383
G1 X106.552 Y49.28 E57.07922
G1 X115.679 Y49.283 E57.53457
G1 X115.913 Y49.368 E57.54699
G1 F1309.1 X116.019 Y49.568 E57.55734
G0 F4000 X116.029 Y49.551
G1 F1800 E57.05734
G1 F600 Z0.6
G0 F4000 X106.04 Y39.758 Z0.6
G1 F600 Z0.2
G1 F1800 E57.55734
G1 F1538.5 X41.58 Y39.757 E60.06576
G1 F1800 E59.56576
G1 F600 Z0.6
G0 F4000 X41.072 Y49.28 Z0.6
G1 F600 Z0.2
G1 F1800 E60.06576
G1 F1200 X41.075 Y40.153 E60.52111
G1 X41.205 Y39.855 E60.53733
G1 F1241.4 X41.319 Y39.797 E60.5435
G1 F1400.8 X41.58 Y39.757 E60.55478
G1 X41.334 Y39.703 E60.56555
G1 F1241.4 X41.245 Y39.612 E60.57169
G1 F1200 X41.181 Y39.431 E60.58127
G1 X41.18 Y30.232 E61.04021
G1 X22.02 Y30.232 E61.9961
G1 X22.02 Y49.392 E62.952
G1 X31.235 Y49.394 E63.41174
G1 X31.383 Y49.443 E63.41951
G1 F1247.8 X31.499 Y49.558 E63.42735
G1 F1406.2 X31.545 Y49.792 E63.4375
G1 X31.577 Y49.547 E63.44802
G1 F1247.8 X31.658 Y49.406 E63.45582
G1 F1200 X31.94 Y49.283 E63.47117
G1 X41.072 Y49.28 E63.92677
G0 F4000 X41.072 Y49.26
G1 F1800 E63.42677
G1 F600 Z0.6
G0 F4000 X31.545 Y49.792 Z0.6
G1 F600 Z0.2
G1 F1800 E63.92677
G1 F1531.9 X31.545 Y106.587 E66.14636
G1 F1800 E65.64636
G1 F600 Z0.6
G0 F4000 X125.985 Y116.558 Z0.6
G1 F600 Z0.2
G1 F1800 E66.14636
G1 F2016.8 X190.46 Y116.558 E68.06028
G1 F1800 E67.56028
G1 F600 Z0.6
G0 F4000 X190.968 Y126.028 Z0.6
G1 F600 Z0.2
G1 F1800 E68.06028
G1 F1200 X200.099 Y126.031 E68.51582
G1 X200.397 Y126.161 E68.53204
G1 F1241.4 X200.455 Y126.275 E68.53821
G1 F1400.8 X200.495 Y126.536 E68.5495
G1 X200.549 Y126.29 E68.56026
G1 F1241.4 X200.64 Y126.201 E68.5664
G1 F1200 X200.821 Y126.137 E68.57598
G1 X210.02 Y126.136 E69.03492
G1 X210.02 Y106.976 E69.99082
G1 X200.815 Y106.974 E70.45005
G1 X200.661 Y106.925 E70.45812
G1 F1247.8 X200.547 Y106.812 E70.46582
G1 F1409 X200.495 Y106.58 E70.47592
G1 X200.462 Y106.824 E70.48638
G1 F1247.8 X200.385 Y106.964 E70.49405
G1 F1200 X200.1 Y107.085 E70.5095
G1 X190.968 Y107.088 E70.96509
G1 X190.965 Y116.215 E71.42044
G1 X190.852 Y116.494 E71.43546
G1 F1309.1 X190.682 Y116.554 E71.4437
G1 X190.85 Y116.618 E71.45192
G1 F1200 X190.968 Y116.894 E71.4669
G1 X190.968 Y126.028 E71.9226
G0 F4000 X190.988 Y126.028
G1 F1800 E71.4226
G1 F600 Z0.6
G0 F4000 X200.495 Y126.536 Z0.6
G1 F600 Z0.2
G1 F1800 E71.9226
G1 F1538.5 X200.495 Y183.396 E74.13527
G1 F1800 E73.63527
G1 F600 Z0.6
G0 F4000 X190.507 Y193.359 Z0.6
G1 F600 Z0.2
G1 F1800 E74.13527
G1 F1535.2 X126.024 Y193.358 E76.64994
G1 F1538.5 X126 Y193.359 E76.65088
G1 F1800 E76.15088
G1 F600 Z0.6
G0 F4000 X110 Y202.88 Z0.6
G1 F600 Z0.2
G1 F1800 E76.65088
G1 F1200 X125.6 Y202.88 E77.42917
G1 X125.602 Y193.672 E77.88855
G1 X125.651 Y193.521 E77.89647
G1 F1247.8 X125.766 Y193.405 E77.90431
G1 F1409 X126 Y193.359 E77.91444
G1 X125.755 Y193.327 E77.92494
G1 F1247.8 X125.614 Y193.246 E77.93274
G1 F1200 X125.491 Y192.96 E77.94828
G1 X125.488 Y183.832 E78.40367
G1 X116.361 Y183.829 E78.85902
G1 X116.084 Y183.717 E78.87393
G1 F1321.1 X116.024 Y183.534 E78.88266
G1 X115.961 Y183.715 E78.89134
G1 F1200 X115.681 Y183.832 E78.90648
G1 X106.552 Y183.832 E79.36193
G1 X106.549 Y192.96 E79.81733
G1 X106.424 Y193.252 E79.83317
G1 F1239.2 X106.312 Y193.313 E79.83933
G1 F1395.3 X106.051 Y193.359 E79.85071
G1 X106.295 Y193.416 E79.86146
G1 F1239.2 X106.382 Y193.51 E79.86764
G1 F1200 X106.435 Y193.652 E79.87521
G1 X106.44 Y202.88 E80.33559
G1 X110 Y202.88 E80.5132
G0 F4000 X110.02 Y202.88
G1 F1800 E80.0132
G1 F600 Z0.6
G0 F4000 X190.9 Y202.956 Z0.6
G1 F600 Z0.2
G1 F1800 E80.5132
G1 F1200 X210.06 Y202.956 E81.4691
G1 X210.06 Y183.796 E82.42499
G1 X200.813 Y183.794 E82.88633
G1 X200.661 Y183.745 E82.8943
G1 F1247.8 X200.545 Y183.63 E82.90213
G1 F1409 X200.495 Y183.396 E82.9123
G1 X200.463 Y183.641 E82.9228
G1 F1247.8 X200.382 Y183.783 E82.93064
G1 F1200 X200.099 Y183.901 E82.94594
G1 X191.008 Y183.904 E83.39949
G1 X191.005 Y192.959 E83.85125
G1 X190.873 Y193.261 E83.86769
G1 F1345.8 X190.507 Y193.359 E83.88455
G1 F1395.3 X190.751 Y193.416 E83.8953
G1 F1239.2 X190.834 Y193.499 E83.90097
G1 F1200 X190.899 Y193.681 E83.91061
G1 X190.9 Y202.956 E84.37334
G0 F4000 X190.92 Y202.956
G1 F1800 E83.87334
G1 F600 Z0.6
G0 F4000 X200.495 Y106.58 Z0.6
G1 F600 Z0.2
G1 F1800 E84.37334
G1 F1538.5 X200.495 Y49.792 E86.58321
G1 F1800 E86.08321
G1 F600 Z0.6
G0 F4000 X190.968 Y49.28 Z0.6
G1 F600 Z0.2
G1 F1800 E86.58321
G1 F1200 X200.1 Y49.283 E87.03881
G1 X200.4 Y49.416 E87.05518
G1 F1241.4 X200.456 Y49.529 E87.06126
G1 F1400.8 X200.495 Y49.792 E87.07262
G1 X200.55 Y49.545 E87.08344
G1 F1241.4 X200.64 Y49.457 E87.08951
G1 F1200 X200.792 Y49.397 E87.09766
G1 X210.02 Y49.392 E87.55805
G1 X210.019 Y30.232 E88.51395
G1 X190.86 Y30.232 E89.46979
G1 X190.858 Y39.439 E89.92913
G1 X190.809 Y39.591 E89.9371
G1 F1245.7 X190.694 Y39.707 E89.94495
G1 F1406.2 X190.46 Y39.757 E89.95514
G1 X190.705 Y39.789 E89.96565
G1 F1245.7 X190.847 Y39.87 E89.97351
G1 F1200 X190.965 Y40.153 E89.98881
G1 X190.968 Y49.28 E90.44416
G0 F4000 X190.988 Y49.28
G1 F1800 E89.94416
G1 F600 Z0.6
G0 F4000 X190.46 Y39.757 Z0.6
G1 F600 Z0.2
G1 F1800 E90.44416
G1 F1535.2 X126 Y39.757 E92.95794
G1 F1800 E92.45794
G1 F600 Z0.6
G0 F4000 X116.025 Y48.181 Z0.6
;TYPE:SKIN
G1 F600 Z0.2
G1 F1800 E92.95794
G1 F1200 X115.8 Y48.128 E92.96947
G1 X107.713 Y48.12 E93.37293
G1 X107.713 Y40.152 E93.77046
G1 X107.665 Y39.832 E93.7866
G1 X107.58 Y39.597 E93.79907
G1 X107.596 Y39.462 E93.80585
G1 X107.6 Y31.392 E94.20846
G1 X124.44 Y31.392 E95.04861
G1 X124.441 Y39.472 E95.45173
G1 X124.456 Y39.609 E95.4586
G1 X124.332 Y40.093 E95.48353
G1 X124.328 Y48.12 E95.884
G1 X116.327 Y48.121 E96.28317
G1 X116.025 Y48.181 E96.29853
G1 F1800 E95.79853
G1 F600 Z0.6
G0 F4000 X124.14 Y32.499 Z0.6
G1 F600 Z0.2
G1 F1800 E96.29853
G1 F1200 X123.333 Y31.692 E96.35547
G0 F4000 X122.484 Y31.692
G1 F1200 X124.14 Y33.348 E96.47231
G0 F4000 X124.14 Y34.196
G1 F1200 X121.636 Y31.692 E96.64898
G0 F4000 X120.787 Y31.692
G1 F1200 X124.14 Y35.045 E96.88555
G0 F4000 X124.14 Y35.893
G1 F1200 X119.939 Y31.692 E97.18196
G0 F4000 X119.09 Y31.692
G1 F1200 X124.14 Y36.742 E97.53826
G0 F4000 X124.14 Y37.591
G1 F1200 X118.242 Y31.692 E97.95443
G0 F4000 X117.393 Y31.692
G1 F1200 X124.14 Y38.439 E98.43047
G0 F4000 X124.14 Y39.288
G1 F1200 X116.545 Y31.692 E98.96637
G0 F4000 X115.696 Y31.692
G1 F1200 X124.045 Y40.041 E99.55544
G0 F4000 X124.028 Y40.872
G1 F1200 X114.848 Y31.692 E100.20314
G0 F4000 X113.999 Y31.692
G1 F1200 X124.028 Y41.721 E100.91074
G0 F4000 X124.028 Y42.569
G1 F1200 X113.151 Y31.692 E101.67817
G0 F4000 X112.302 Y31.692
G1 F1200 X124.028 Y43.418 E102.5055
G0 F4000 X124.028 Y44.266
G1 F1200 X111.453 Y31.692 E103.3927
G0 F4000 X110.605 Y31.692
G1 F1200 X124.028 Y45.115 E104.33977
G0 F4000 X124.028 Y45.963
G1 F1200 X109.756 Y31.692 E105.3467
G0 F4000 X108.908 Y31.692
G1 F1200 X124.028 Y46.812 E106.41349
G0 F4000 X124.028 Y47.66
G1 F1200 X108.059 Y31.692 E107.54016
G0 F4000 X107.899 Y32.38
G1 F1200 X123.339 Y47.82 E108.62953
G0 F4000 X122.491 Y47.821
G1 F1200 X107.899 Y33.228 E109.65911
G0 F4000 X107.898 Y34.076
G1 F1200 X121.644 Y47.822 E110.62897
G0 F4000 X120.795 Y47.822
G1 F1200 X107.897 Y34.924 E111.53899
G0 F4000 X107.897 Y35.773
G1 F1200 X119.947 Y47.822 E112.38915
G0 F4000 X119.099 Y47.823
G1 F1200 X107.897 Y36.62 E113.17955
G0 F4000 X107.897 Y37.469
G1 F1200 X118.252 Y47.824 E113.91015
